logos/pocket/logo-word-hor-white.svg

<svg width="303" height="80" viewBox="0 0 303 80" fill="none" xmlns="http://www.w3.org/2000/svg">
<path fill-rule="evenodd" clip-rule="evenodd" d="M84.721 55.6059C76.284 55.6059 69.202 48.4809 69.202 39.7809C69.202 30.9949 76.24 23.6939 84.722 23.6939C93.333 23.6939 100.24 30.9939 100.24 39.7809C100.24 48.4809 93.333 55.6059 84.721 55.6059ZM84.809 18.6229C78.426 18.6229 72.743 22.2079 68.721 27.0599L68.591 21.2899C68.503 19.2789 67.497 18.2729 66.011 18.2729C64.437 18.2729 63.388 19.4969 63.388 21.2459V77.202C63.388 78.8629 64.525 79.9999 66.098 79.9999C67.759 79.9999 68.721 78.7759 68.721 77.1149V52.6339C72.743 57.3989 78.426 60.6779 84.809 60.6779C96.437 60.6779 105.661 51.3219 105.661 39.7809C105.661 28.2399 96.481 18.6229 84.809 18.6229Z" fill="white"/>
<path fill-rule="evenodd" clip-rule="evenodd" d="M216.524 37.683L231.781 23.913C233.181 22.689 233.355 20.896 232.262 19.716C231.125 18.492 229.377 18.798 228.152 19.978L207.432 39.475V3.104C207.432 1.224 206.601 0 204.896 0C203.016 0 202.098 1.224 202.098 3.104V57.66C202.098 59.452 203.148 60.677 204.896 60.677C206.47 60.677 207.431 59.452 207.431 57.66V45.858L212.765 41.049L229.508 59.716C230.558 60.852 232.393 61.29 233.53 60.196C234.841 58.973 234.448 57.311 233.442 56.175L216.524 37.683ZM131.235 55.59C122.798 55.59 115.715 48.464 115.715 39.764C115.715 30.977 122.754 23.677 131.235 23.677C139.847 23.677 146.754 30.977 146.754 39.764C146.754 48.464 139.847 55.589 131.234 55.589L131.235 55.59ZM131.41 18.606C119.519 18.606 110.339 28.223 110.339 39.764C110.339 51.305 119.519 60.66 131.409 60.66C142.557 60.66 152.262 51.305 152.262 39.764C152.262 28.223 142.47 18.606 131.41 18.606ZM300.546 52.721C299.716 52.721 298.885 53.202 298.404 53.639C297.267 54.645 295.869 55.606 293.901 55.606C290.535 55.606 288.655 53.552 288.655 48.874V23.607L299.06 23.781C300.546 23.781 301.508 22.863 301.508 21.464C301.508 19.978 300.502 19.104 299.06 19.104L288.655 19.191V10.711C288.655 9.049 287.519 7.913 286.12 7.913C284.634 7.913 283.41 9.049 283.41 10.71V19.191L278.95 19.104C277.552 19.104 276.59 20.022 276.59 21.464C276.59 22.776 277.639 23.825 278.95 23.781L283.366 23.607V49.049C283.366 57.005 288.218 60.678 293.77 60.678C297.224 60.678 299.847 59.366 301.639 57.486C302.207 56.831 302.776 56.087 302.776 55.126C302.819 53.726 301.945 52.721 300.546 52.721ZM241.442 36.792C242.666 28.18 249.005 23.677 256.175 23.677C263.781 23.677 269.115 30.059 269.465 36.792H241.442ZM256.175 18.606C244.546 18.606 235.847 28.223 235.847 39.764C235.847 51.305 244.721 60.66 256.262 60.66C261.989 60.66 267.584 58.518 271.257 54.934C272.087 54.104 272.743 53.229 272.743 52.311C272.743 50.999 271.913 49.951 270.383 49.951C269.552 49.951 268.721 50.3 268.065 50.868C264.612 53.885 261.115 55.633 256.262 55.633C248.742 55.633 242.011 49.906 241.312 41.382H270.6C273.398 41.382 274.928 39.895 274.928 37.535C274.928 28.267 266.884 18.605 256.174 18.605L256.175 18.606ZM192.437 47.72C191.694 47.72 190.863 48.288 190.382 48.944C188.065 51.96 183.169 55.588 177.661 55.588C169.442 55.588 162.404 49.118 162.404 39.763C162.404 29.753 169.442 23.763 177.661 23.763C183.651 23.763 186.929 26.649 189.727 30.015C190.207 30.583 190.951 31.151 191.869 31.151C193.093 31.151 194.317 30.233 194.317 29.009C194.317 28.091 193.748 27.217 193.267 26.474C189.901 21.621 184.262 18.867 177.705 18.867C166.295 18.867 156.94 28.222 156.94 39.763C156.94 51.173 166.295 60.659 177.705 60.659C184.743 60.659 190.819 56.55 194.011 52.309C194.579 51.567 194.929 50.823 194.929 50.168C194.885 48.725 193.836 47.72 192.437 47.72Z" fill="white"/>
<path d="M42.4394 19H4.52012C2.04662 19 0 20.9127 0 23.3648V37.4032C0 50.1361 10.5255 60.71 23.4801 60.71C36.3446 60.7106 46.78 50.1361 46.78 37.4021V23.3636C46.78 20.8905 44.8234 19 42.4394 19ZM36.7498 36.4135L25.5933 46.919C25.0086 47.5718 24.1315 47.842 23.4567 47.842C22.6246 47.842 21.8153 47.5946 21.1627 46.9196L10.1881 36.4129C9.0186 35.198 8.88411 33.1285 10.1881 31.8235C11.4026 30.6537 13.4715 30.5191 14.7082 31.8235L23.4795 40.2601L32.4308 31.8235C33.6003 30.5191 35.6469 30.6537 36.772 31.8235C37.9187 33.1057 37.9187 35.1752 36.7492 36.4129L36.7498 36.4135Z" fill="#EF4154"/>
<path d="M36.7492 36.4135L25.5945 46.919C25.0097 47.5718 24.1326 47.842 23.4578 47.842C22.6257 47.842 21.8164 47.5946 21.1638 46.9196L10.1881 36.413C9.01857 35.1981 8.88408 33.1285 10.1881 31.8236C11.4026 30.6537 13.4714 30.5192 14.7082 31.8236L23.4794 40.2601L32.4308 31.8236C33.6003 30.5192 35.6469 30.6537 36.772 31.8236C37.9187 33.1057 37.9187 35.1752 36.7492 36.413V36.4135Z" fill="white"/>
</svg>

<svg width="303" height="80" fill="none" xmlns="http://www.w3.org/2000/svg"><path fill-rule="evenodd" clip-rule="evenodd" d="M84.721 55.606c-8.437 0-15.519-7.125-15.519-15.825 0-8.786 7.038-16.087 15.52-16.087 8.611 0 15.518 7.3 15.518 16.087 0 8.7-6.907 15.825-15.519 15.825Zm.088-36.983c-6.383 0-12.066 3.585-16.088 8.437l-.13-5.77c-.088-2.011-1.094-3.017-2.58-3.017-1.574 0-2.623 1.224-2.623 2.973v55.956c0 1.661 1.137 2.798 2.71 2.798 1.661 0 2.623-1.224 2.623-2.885V52.634c4.022 4.765 9.705 8.044 16.088 8.044 11.628 0 20.852-9.356 20.852-20.897 0-11.541-9.18-21.158-20.852-21.158" fill="#fff"/><path fill-rule="evenodd" clip-rule="evenodd" d="M36.765 36.398 25.617 46.89c-.568.656-1.486.918-2.142.918-.83 0-1.66-.262-2.317-.918L10.186 36.398c-1.137-1.224-1.312-3.278 0-4.59 1.224-1.137 3.278-1.311 4.503 0l8.786 8.437 8.962-8.437c1.137-1.311 3.191-1.137 4.328 0 1.137 1.312 1.137 3.366 0 4.59ZM42.405 19H4.502C2.055 19 0 20.88 0 23.371v14.033c0 12.721 10.492 23.3 23.475 23.3 12.897 0 23.3-10.579 23.3-23.3V23.37c-.043-2.492-2.01-4.372-4.37-4.372" fill="#EF4154"/><path fill-rule="evenodd" clip-rule="evenodd" d="m216.524 37.683 15.257-13.77c1.4-1.224 1.574-3.017.481-4.197-1.137-1.224-2.885-.918-4.11.262l-20.72 19.497V3.104c0-1.88-.831-3.104-2.536-3.104-1.88 0-2.798 1.224-2.798 3.104V57.66c0 1.792 1.05 3.017 2.798 3.017 1.574 0 2.535-1.225 2.535-3.017V45.858l5.334-4.809 16.743 18.667c1.05 1.136 2.885 1.574 4.022.48 1.311-1.223.918-2.885-.088-4.021l-16.918-18.492ZM131.235 55.59c-8.437 0-15.52-7.126-15.52-15.826 0-8.787 7.039-16.087 15.52-16.087 8.612 0 15.519 7.3 15.519 16.087 0 8.7-6.907 15.825-15.52 15.825l.001.001Zm.175-36.984c-11.891 0-21.071 9.617-21.071 21.158s9.18 20.896 21.07 20.896c11.148 0 20.853-9.355 20.853-20.896s-9.792-21.158-20.852-21.158Zm169.136 34.115c-.83 0-1.661.481-2.142.918-1.137 1.006-2.535 1.967-4.503 1.967-3.366 0-5.246-2.054-5.246-6.732V23.607l10.405.174c1.486 0 2.448-.918 2.448-2.317 0-1.486-1.006-2.36-2.448-2.36l-10.405.087v-8.48c0-1.662-1.136-2.798-2.535-2.798-1.486 0-2.71 1.136-2.71 2.797v8.481l-4.46-.087c-1.398 0-2.36.918-2.36 2.36 0 1.312 1.049 2.361 2.36 2.317l4.416-.174v25.442c0 7.956 4.852 11.629 10.404 11.629 3.454 0 6.077-1.312 7.869-3.192.568-.655 1.137-1.399 1.137-2.36.043-1.4-.831-2.405-2.23-2.405Zm-59.104-15.929c1.224-8.612 7.563-13.115 14.733-13.115 7.606 0 12.94 6.382 13.29 13.115h-28.023Zm14.733-18.186c-11.629 0-20.328 9.617-20.328 21.158s8.874 20.896 20.415 20.896c5.727 0 11.322-2.142 14.995-5.726.83-.83 1.486-1.705 1.486-2.623 0-1.312-.83-2.36-2.36-2.36-.831 0-1.662.349-2.318.917-3.453 3.017-6.95 4.765-11.803 4.765-7.52 0-14.251-5.727-14.95-14.251H270.6c2.798 0 4.328-1.487 4.328-3.847 0-9.268-8.044-18.93-18.754-18.93l.001.001ZM192.437 47.72c-.743 0-1.574.568-2.055 1.224-2.317 3.016-7.213 6.644-12.721 6.644-8.219 0-15.257-6.47-15.257-15.825 0-10.01 7.038-16 15.257-16 5.99 0 9.268 2.886 12.066 6.252.48.568 1.224 1.136 2.142 1.136 1.224 0 2.448-.918 2.448-2.142 0-.918-.569-1.792-1.05-2.535-3.366-4.853-9.005-7.607-15.562-7.607-11.41 0-20.765 9.355-20.765 20.896 0 11.41 9.355 20.896 20.765 20.896 7.038 0 13.114-4.109 16.306-8.35.568-.742.918-1.486.918-2.141-.044-1.443-1.093-2.448-2.492-2.448" fill="#fff"/></svg>
